public_html/assets/img/scroll.svg

<svg width="25" height="25" viewBox="0 0 25 25" fill="none" xmlns="http://www.w3.org/2000/svg">
<path d="M24.5 12.5C24.5 19.1274 19.1274 24.5 12.5 24.5C5.87258 24.5 0.5 19.1274 0.5 12.5C0.5 5.87258 5.87258 0.5 12.5 0.5C19.1274 0.5 24.5 5.87258 24.5 12.5Z" fill="white" stroke="#F45F5F"/>
<path fill-rule="evenodd" clip-rule="evenodd" d="M7.5 11.25L12.5 17.0833L7.5 11.25Z" stroke="#F45F5F" stroke-linecap="round"/>
<path fill-rule="evenodd" clip-rule="evenodd" d="M17.5 11.25L12.5 17.0833L17.5 11.25Z" stroke="#F45F5F" stroke-linecap="round"/>
</svg>

<svg xmlns="http://www.w3.org/2000/svg" width="25" height="25" fill="none"><path fill="#fff" stroke="#F45F5F" d="M24.5 12.5c0 6.627-5.373 12-12 12s-12-5.373-12-12 5.373-12 12-12 12 5.373 12 12Z"/><path stroke="#F45F5F" stroke-linecap="round" d="m7.5 11.25 5 5.833-5-5.833Zm10 0-5 5.833 5-5.833Z" clip-rule="evenodd"/></svg>
